storage/app/icons/phosphoricons/duotone/stop-duotone.svg

<svg xmlns="http://www.w3.org/2000/svg" fill="currentColor" viewBox="0 0 256 256"><path d="M208 56v144a8 8 0 0 1-8 8H56a8 8 0 0 1-8-8V56a8 8 0 0 1 8-8h144a8 8 0 0 1 8 8" opacity=".2"/><path d="M200 40H56a16 16 0 0 0-16 16v144a16 16 0 0 0 16 16h144a16 16 0 0 0 16-16V56a16 16 0 0 0-16-16m0 160H56V56h144z"/></svg>

<svg xmlns="http://www.w3.org/2000/svg" viewBox="0 0 256 256" fill="currentColor"><path d="M208,56V200a8,8,0,0,1-8,8H56a8,8,0,0,1-8-8V56a8,8,0,0,1,8-8H200A8,8,0,0,1,208,56Z" opacity="0.2"/><path d="M200,40H56A16,16,0,0,0,40,56V200a16,16,0,0,0,16,16H200a16,16,0,0,0,16-16V56A16,16,0,0,0,200,40Zm0,160H56V56H200V200Z"/></svg>
